packages/sources/icons/src/vitamix/distance-line.svg

<svg width="16" height="16" viewBox="0 0 16 16" xmlns="http://www.w3.org/2000/svg"><path fill-rule="evenodd" clip-rule="evenodd" d="M6.24267 5.61888L5.3 4.66669L2 8.00002L5.3 11.3334L6.24267 10.3812L4.552 8.67342H6H10.6667V8.67284L11.448 8.67275L9.75733 10.3812L10.7 11.3334L14 8.00002L10.7 4.66669L9.75733 5.61888L11.448 7.32662L10.6667 7.32662L6 7.32662L4.552 7.32662L6.24267 5.61888Z"/></svg>

<svg width="16" height="16" xmlns="http://www.w3.org/2000/svg"><path fill-rule="evenodd" clip-rule="evenodd" d="M6.243 5.619 5.3 4.667 2 8l3.3 3.333.943-.952-1.691-1.708h6.896l-1.69 1.708.942.952L14 8l-3.3-3.333-.943.952 1.691 1.708H4.552l1.69-1.708Z"/></svg>
